dist/images/grace/advantages3.svg

<svg width="127" height="126" viewBox="0 0 127 126" fill="none" xmlns="http://www.w3.org/2000/svg">
<circle cx="63.5" cy="63" r="61.5" stroke="#E2704C" stroke-width="3"/>
<g clip-path="url(#clip0)">
<path d="M92.2129 82.1582H90.4258V71.4355H92.2129C92.9821 71.4355 93.665 70.9434 93.9083 70.2135C94.1514 69.4838 93.9005 68.6803 93.2852 68.2188L86.8516 63.3936V57.0954C91.4549 56.827 94 54.7635 94 49.9902C94 47.1672 93.1125 42.9145 91.7915 39.408C89.9397 34.4924 87.6764 32 85.0645 32C82.4525 32 80.1892 34.4924 78.3374 39.408C77.0164 42.9146 76.1289 47.1672 76.1289 49.9902C76.1289 54.7579 78.6939 56.8282 83.2773 57.0954V60.7129L78.9883 57.4961C78.3528 57.0195 77.4792 57.0195 76.8438 57.4961L68.9805 63.3936V52.522L69.5092 53.0463C70.209 53.7404 71.3385 53.7367 72.0339 53.0384C72.7293 52.3402 72.7282 51.2106 72.0313 50.5137C70.1507 48.6487 59.5447 38.1303 57.61 36.2116C56.9114 35.5187 55.7839 35.5208 55.088 36.2169L40.7911 50.5137C40.093 51.2118 40.0932 52.3431 40.7911 53.0411C41.4889 53.739 42.6205 53.739 43.3184 53.0411L43.8418 52.5177V57.6333L34.2276 60.8028C33.4949 61.0443 33 61.7287 33 62.5C33 63.0729 33 88.4285 33 91.2129C33 92.1999 33.8001 93 34.7871 93H92.2129C93.1999 93 94 92.1999 94 91.2129V83.9453C94 82.9584 93.1999 82.1582 92.2129 82.1582ZM86.8516 37.3289C87.338 38.097 87.8838 39.1736 88.4469 40.6681C88.7647 41.5121 89.0453 42.3801 89.2881 43.2396L86.8516 44.864V37.3289ZM86.8516 49.1596L90.1278 46.9755C90.325 48.1658 90.4258 49.2134 90.4258 49.9902C90.4258 52.4806 89.7417 53.3165 86.8516 53.5138V49.1596ZM81.682 40.6681C82.2451 39.1736 82.7909 38.097 83.2773 37.3289V44.8639L80.8408 43.2395C81.0836 42.3801 81.3642 41.5121 81.682 40.6681ZM79.7031 49.9902C79.7031 49.2133 79.8039 48.1658 80.0011 46.9755L83.2773 49.1596V53.5138C80.3872 53.3165 79.7031 52.4806 79.7031 49.9902ZM77.916 61.1597L87.4523 68.3119C87.0838 68.6393 86.8516 69.1168 86.8516 69.6484V82.1582H83.2773V73.2227C83.2773 72.2357 82.4772 71.4355 81.4902 71.4355H74.3418C73.3548 71.4355 72.5547 72.2357 72.5547 73.2227V82.1582H68.9805V69.6484C68.9805 69.1259 68.7449 68.6363 68.3798 68.3119L77.916 61.1597ZM79.7031 75.0098V82.1582H76.1289V75.0098H79.7031ZM47.416 48.9435L56.3568 40.0027L65.4062 48.9773V66.0742L62.5469 68.2188C61.9315 68.6803 61.6806 69.4838 61.9238 70.2135C62.1671 70.9434 62.85 71.4355 63.6191 71.4355H65.4062V82.1582H61.7129V76.7969C61.7129 73.8406 59.3078 71.4355 56.3516 71.4355C53.3953 71.4355 50.9902 73.8406 50.9902 76.7969V82.1582H47.416C47.416 78.2214 47.416 52.9384 47.416 48.9435ZM58.1387 76.7969V82.1582H54.5645V76.7969C54.5645 75.8115 55.3661 75.0098 56.3516 75.0098C57.337 75.0098 58.1387 75.8115 58.1387 76.7969ZM36.5742 78.584H38.3613C39.3483 78.584 40.1484 77.7838 40.1484 76.7969C40.1484 75.8099 39.3483 75.0098 38.3613 75.0098H36.5742V71.4355H38.3613C39.3483 71.4355 40.1484 70.6354 40.1484 69.6484C40.1484 68.6615 39.3483 67.8613 38.3613 67.8613H36.5742V63.7927L43.8418 61.3968V82.1582H36.5742V78.584ZM90.4258 89.4258H36.5742V85.7324C46.4996 85.7324 84.8878 85.7324 90.4258 85.7324V89.4258Z" fill="#373737"/>
<path d="M56.3516 49.9902C53.3953 49.9902 50.9902 52.3953 50.9902 55.3516C50.9902 58.3078 53.3953 60.7129 56.3516 60.7129C59.3078 60.7129 61.7129 58.3078 61.7129 55.3516C61.7129 52.3953 59.3078 49.9902 56.3516 49.9902ZM56.3516 57.1387C55.3662 57.1387 54.5645 56.337 54.5645 55.3516C54.5645 54.3662 55.3662 53.5645 56.3516 53.5645C57.337 53.5645 58.1387 54.3662 58.1387 55.3516C58.1387 56.337 57.337 57.1387 56.3516 57.1387Z" fill="#373737"/>
</g>
<defs>
<clipPath id="clip0">
<rect width="61" height="61" fill="white" transform="translate(33 32)"/>
</clipPath>
</defs>
</svg>

<svg width="127" height="126" fill="none" xmlns="http://www.w3.org/2000/svg"><circle cx="63.5" cy="63" r="61.5" stroke="#E2704C" stroke-width="3"/><g clip-path="url(#clip0)" fill="#373737"><path d="M92.213 82.158h-1.787V71.436h1.787a1.787 1.787 0 001.072-3.217l-6.433-4.825v-6.299C91.455 56.827 94 54.764 94 49.99c0-2.823-.888-7.076-2.209-10.582C89.94 34.492 87.677 32 85.064 32c-2.611 0-4.875 2.492-6.727 7.408-1.32 3.507-2.208 7.76-2.208 10.582 0 4.768 2.565 6.838 7.148 7.105v3.618l-4.289-3.217a1.787 1.787 0 00-2.144 0l-7.863 5.898V52.522l.528.524a1.787 1.787 0 002.522-2.532L57.61 36.212a1.787 1.787 0 00-2.522.005L40.791 50.514a1.787 1.787 0 102.527 2.527l.524-.523v5.115l-9.614 3.17A1.787 1.787 0 0033 62.5v28.713C33 92.2 33.8 93 34.787 93h57.426C93.2 93 94 92.2 94 91.213v-7.268c0-.987-.8-1.787-1.787-1.787zm-5.361-44.83c.486.769 1.032 1.846 1.595 3.34.318.844.598 1.712.841 2.572l-2.436 1.624v-7.535zm0 11.832l3.276-2.184c.197 1.19.298 2.237.298 3.014 0 2.49-.684 3.326-3.574 3.524V49.16zm-5.17-8.492c.563-1.494 1.109-2.571 1.595-3.34v7.536l-2.436-1.624c.243-.86.523-1.728.841-2.572zm-1.979 9.322c0-.777.1-1.824.298-3.015l3.276 2.185v4.354c-2.89-.198-3.574-1.033-3.574-3.524zm-1.787 11.17l9.536 7.152c-.368.327-.6.805-.6 1.336v12.51h-3.575v-8.935c0-.987-.8-1.787-1.787-1.787h-7.148c-.987 0-1.787.8-1.787 1.787v8.935H68.98v-12.51c0-.522-.235-1.012-.6-1.336l9.536-7.152zm1.787 13.85v7.148H76.13V75.01h3.574zM47.416 48.943l8.94-8.94 9.05 8.974v17.097l-2.86 2.145a1.787 1.787 0 001.073 3.217h1.787v10.722h-3.693v-5.361a5.367 5.367 0 00-5.361-5.361 5.367 5.367 0 00-5.362 5.36v5.362h-3.574V48.943zm10.723 27.854v5.361h-3.575v-5.361a1.79 1.79 0 011.788-1.787 1.79 1.79 0 011.787 1.787zm-21.565 1.787h1.787a1.787 1.787 0 000-3.574h-1.787v-3.575h1.787a1.787 1.787 0 100-3.574h-1.787v-4.068l7.268-2.396v20.761h-7.268v-3.574zm53.852 10.842H36.574v-3.694h53.852v3.694z"/><path d="M56.352 49.99a5.367 5.367 0 00-5.362 5.362 5.367 5.367 0 005.362 5.36 5.367 5.367 0 005.36-5.36 5.367 5.367 0 00-5.36-5.362zm0 7.149a1.79 1.79 0 01-1.787-1.787 1.79 1.79 0 011.787-1.787 1.79 1.79 0 011.787 1.787 1.79 1.79 0 01-1.787 1.787z"/></g><defs><clipPath id="clip0"><path fill="#fff" transform="translate(33 32)" d="M0 0h61v61H0z"/></clipPath></defs></svg>
